X: 281
T: The Princes favorite
%R: hornpipe, reel
Z: 2014 John Chambers <jc:trillian.mit.edu>
B: Preston "Twenty four Country Dances for the Year 1796" p.121 #1
F: http://www.vwml.org/browse/browse-collections-dance-tune-books/browse-prestons1796# 2014-8-10
M: C|
L: 1/8
K: C
F |\
EG2c A>cG>c | F>cE>c {E}D>CDF |\
EG2c A>c G>a | g>ef>d c3 :|\
e |\
g>cg>e g>cg>e | g>cg>e d>ef>a |
g>cg>e g>cg>e | fafd {d}c3e |\
g>cg>e g>cg>e | g>cg>e d>ef>a |\
gefd ecdB | cAGE C3 |]
% - - - - - - - - - - - - - - - - - - - - - - - - -
%%begintext align
%% Right hands across .| Left back again :|
%% lead down the midle up again :|.
%%           Allmande :|:
%%endtext
% - - - - - - - - - - - - - - - - - - - - - - - - -

%%sep 1 1 500
%%sep 1 1 500
